X:1
T:Title
%%score { 1 | 2 }
L:1/8
M:6/8
K:Bb
V:1 treble nm="Grand Piano"
V:2 bass 
V:1
 z3 z2[Q:1/4=81] [DF] | [DF][B,D][CE] [DF]2 [DF]/[DF]/ | GAB F2 F | B>BB BAB | cc>d c2 F | %5
 [Fd]>[Fd][Fd] [Fd][Fc][FB] | [GB][FA][EG] [DF]2 [DF] | [EG]>[FA][GB] FBd | cG>A .[DB]3 | %9
 F/c-<cc/ c c2 | [Fd]/[DB]-<[DB][DB]/ [DB] [DB]2 | G>AB FBB | c>Bd c3 | F/c-<cc/ c c2 | %14
 [Fd]/[DB]-<[DB][DB]/ [DB] [DB]2 | [EG]>[FA][GB] FBd | %16
[M:5/8] cG>A [DB]2[Q:1/4=78][Q:1/4=76][Q:1/4=73][Q:1/4=71][Q:1/4=68][Q:1/4=66][Q:1/4=63] |] %17
V:2
 z3 z2 [B,,B,] | [B,,B,][B,,F,][B,,F,] [B,,B,]2 [B,,B,]/[B,,B,]/ | %2
 [E,B,E][F,B,E][G,B,E] [B,D]2 [B,D] | [B,D]>[B,D][B,D] [G,B,D][G,B,C][G,B,D] | %4
 [F,A,F][F,A,F]>[F,B,F] [F,A,F]2 [F,A,] | [B,,B,]>[B,,B,][B,,B,] [B,,B,][C,A,][D,B,] | %6
 [E,B,][E,B,][E,B,] [B,,B,]2 [B,,B,] | [E,B,]>[E,B,][E,B,] [F,B,D][F,B,D][F,B,F] | %8
 [F,A,E][F,B,E]>[F,CE] .[B,,B,]3 | [F,A,]/[F,A,F]-<[F,A,F][F,A,F]/ [F,A,F] [F,A,F]2 | %10
 [B,,B,]/[B,,F,]-<[B,,F,][B,,F,]/ [B,,F,] [B,,B,]2 | [E,B,E]>[F,B,E][G,B,E] [B,D][B,D][B,D] | %12
 [F,A,F]>[F,G,F][F,B,F] [F,A,F]3 | [F,A,]/[F,A,F]-<[F,A,F][F,A,F]/ [F,A,F] [F,A,F]2 | %14
 [B,,B,]/[B,,F,]-<[B,,F,][B,,F,]/ [B,,F,] [B,,B,]2 | [E,B,]>[E,B,][E,B,] [F,B,D][F,B,D][F,B,F] | %16
[M:5/8] [F,A,E][F,B,E]>[F,CE] [B,,B,]2 |] %17

